X:13781
T:Queen of the Fair
Z: id:dc-jig-105
M:6/8
L:1/8
K:D Major
G|FEF DA,A,|DFA dAF|GBG FGA|BGE EAG|!
FEF DA,A,|DFA dAF|EFG EAG|FDD D2:|!
g|fdf ece|dAG FEF|DFA dAF|GFG E2g|!
fdf ece|dAG FED|EFG EAG|FDD D2:|!
F|Add fdd|add fdB|AFd geg|fdf e|!
[1 cA|Add fdd|add fdd|EFG EAG|FDD D2:|!
[2 fg|afa gea|fdg ecA|EFG EAG|FDD D2|]!
